X: 9
T:Moj Dilbere
S:Muhamed Zero, Sevdah Bosnjaka, Sarajevo 1995
M:4/4
L:1/8
Q:1/4=90
K:DPhr
    "D" ^F2 G2 A2 (3BAG|"D"A8         |       \
    "Gm" B3  A B2   c2 |"D"A3 B A2  G2|       \
    "Cm"^F3  A GF   E2 |"D"D8        ||
  |:"D"  A3  B c2   B2 |"D"A3 B A2 G^F|"Cm"E6 \
D2|      C3  D ED  ^FE |"D"D8        :|

Another example from outside Scottish music is the six-note WHOLE-TONE
relative pitch set.  This is used in some folk music from Eastern Europe,
but is most familiar as used by French composers of the early 20th century.
Unlike the white-note scale, it's symmetric: there are only two whole-tone
absolute pitch sets, each taking half of the notes of the chromatic scale:

